X: 7268
T: Clare, The
R: hornpipe
M: 4/4
K: Gmajor
|:G2AG EDEF|G2Bd efge|d2BG AGEG|AcBA AGED|
G2AG EDEF|G2Bd efge|d2BG AGEF|1 G2GE G2DE/F/:|2 G2GE G2ef||
|:g2fd edBd|g2af gfef|g2fd edBG|AcBG AGED|
G2AG EDEF|G2Bd efge|d2BG AGEF|1 G2GF G2ef:|2 G2GF G2DE/F/||

